img/help.svg

<svg fill="none" height="800" viewBox="0 0 24 24" width="800" xmlns="http://www.w3.org/2000/svg">
    <path clip-rule="evenodd"
          d="m2 12c0-5.52285 4.47715-10 10-10 5.5228 0 10 4.47715 10 10 0 5.5228-4.4772 10-10 10-5.52285 0-10-4.4772-10-10zm10-3c-.2985 0-.5656.12956-.7503.33882-.3654.41407-.9974.45347-1.41143.08801-.41407-.36547-.45347-.99741-.08801-1.41148.54824-.62115 1.35354-1.01535 2.24974-1.01535 1.6569 0 3 1.34315 3 3 0 1.3072-.8353 2.4171-2 2.829v.171c0 .5523-.4477 1-1 1s-1-.4477-1-1v-.5c0-.8716.6873-1.388 1.2482-1.5308.4328-.1102.7518-.5037.7518-.9692 0-.55228-.4477-1-1-1zm0 6c-.5523 0-1 .4477-1 1s.4477 1 1 1h.01c.5523 0 1-.4477 1-1s-.4477-1-1-1z"
          fill="#ffffff" fill-rule="evenodd"/>
</svg>

<?xml version="1.0" encoding="UTF-8" standalone="no"?>
<svg width="100%" height="100%" viewBox="0 0 800 800" version="1.1" xmlns="http://www.w3.org/2000/svg"
     style="fill-rule:evenodd;clip-rule:evenodd;stroke-linejoin:round;stroke-miterlimit:2;">
    <g transform="matrix(25,0,0,25,100,100)">
        <path fill="black" d="M2,12C2,6.477 6.477,2 12,2C17.523,2 22,6.477 22,12C22,17.523 17.523,22 12,22C6.477,22 2,17.523 2,12ZM12,9C11.702,9 11.434,9.13 11.25,9.339C10.884,9.753 10.252,9.792 9.838,9.427C9.424,9.061 9.385,8.429 9.75,8.015C10.299,7.394 11.104,7 12,7C13.657,7 15,8.343 15,10C15,11.307 14.165,12.417 13,12.829L13,13C13,13.552 12.552,14 12,14C11.448,14 11,13.552 11,13L11,12.5C11,11.628 11.687,11.112 12.248,10.969C12.681,10.859 13,10.466 13,10C13,9.448 12.552,9 12,9ZM12,15C11.448,15 11,15.448 11,16C11,16.552 11.448,17 12,17L12.01,17C12.562,17 13.01,16.552 13.01,16C13.01,15.448 12.562,15 12.01,15L12,15Z"/>
    </g>
</svg>
